icons/src/svg/phone.svg

<svg width="32" height="32" viewBox="0 0 32 32" fill="none" xmlns="http://www.w3.org/2000/svg">
<path fill-rule="evenodd" clip-rule="evenodd" d="M11.6196 4C12.5278 3.9994 13.323 4.60927 13.5578 5.48655L14.6109 9.42025C14.7961 10.1121 14.5982 10.8502 14.0918 11.3566L13.4966 11.9518L13.4978 11.953L12.5778 12.8729C13.2568 14.2484 14.1692 15.539 15.3164 16.6862C16.4635 17.8333 17.7542 18.7457 19.1297 19.4247L19.8017 18.7528L19.7972 18.7484L20.6417 17.9039C21.1481 17.3974 21.8862 17.1996 22.578 17.3848L26.5117 18.4379C27.389 18.6727 27.9989 19.4679 27.9983 20.3761L27.9967 22.7804H28V26.0125C28 27.0538 27.1873 27.9671 26.0877 27.9937C20.3975 28.1313 14.6596 26.0282 10.3157 21.6844C5.97186 17.3406 3.8687 11.6027 4.00634 5.91254C4.03294 4.81291 4.94619 4.00027 5.98748 4.00027H9.21967V4.0016L11.6196 4ZM8.12448 6.00027H6.00484C5.8905 11.1532 7.79882 16.3391 11.7299 20.2702C15.661 24.2012 20.847 26.1095 26 25.9952V23.8711H25.996L25.9983 20.3747C25.9983 20.3724 25.9968 20.3704 25.9945 20.3698L22.0608 19.3168L22.0559 19.3181L21.4594 19.9145L21.4639 19.919L20.5343 20.8486C19.9583 21.4245 19.0588 21.6177 18.2805 21.2359C16.6982 20.4596 15.2158 19.414 13.9022 18.1004C12.5886 16.7868 11.5429 15.3044 10.7667 13.7222C10.3848 12.9438 10.578 12.0443 11.1539 11.4684L11.8343 10.788L11.8331 10.7868L12.6776 9.94233L12.6789 9.93745L11.6258 6.00376C11.6253 6.00155 11.6232 6 11.6209 6L8.12449 6.00233L8.12448 6.00027Z" fill="#0D0F13"/>
</svg>

<svg fill="none" xmlns="http://www.w3.org/2000/svg" viewBox="0 0 32 32">
  <path fill-rule="evenodd" clip-rule="evenodd" d="M11.62 4c.908 0 1.703.61 1.938 1.487L14.61 9.42a2.005 2.005 0 0 1-.52 1.937l-.594.595v.001l-.92.92a14.402 14.402 0 0 0 2.74 3.813 14.403 14.403 0 0 0 3.813 2.739l.672-.672-.005-.005.845-.844a2.005 2.005 0 0 1 1.936-.52l3.934 1.054a2.005 2.005 0 0 1 1.486 1.938l-.001 2.404H28v3.232c0 1.042-.813 1.955-1.912 1.982a21.505 21.505 0 0 1-15.772-6.31 21.504 21.504 0 0 1-6.31-15.771C4.033 4.813 4.946 4 5.987 4H9.22v.002L11.62 4ZM8.124 6h-2.12a19.504 19.504 0 0 0 5.726 14.27A19.505 19.505 0 0 0 26 25.995v-2.124h-.004l.002-3.496a.005.005 0 0 0-.004-.005l-3.933-1.053-.005.001-.597.596.005.005-.93.93a1.965 1.965 0 0 1-2.253.387 16.402 16.402 0 0 1-4.379-3.136 16.401 16.401 0 0 1-3.135-4.378 1.965 1.965 0 0 1 .387-2.254l.68-.68v-.001l.844-.845a.005.005 0 0 0 0-.005l-1.052-3.933A.005.005 0 0 0 11.62 6l-3.497.002V6Z" fill="currentColor"/>
</svg>
